svg/fluentui-system-icons/ic_fluent_approvals_app_20_filled.svg

<svg width="20" height="20" viewBox="0 0 20 20" fill="none" xmlns="http://www.w3.org/2000/svg">
<path d="M9.78033 0.71967C9.48744 0.426777 9.01256 0.426777 8.71967 0.71967C8.42678 1.01256 8.42678 1.48744 8.71967 1.78033L9.93934 3H9.5C5.35786 3 2 6.35786 2 10.5C2 14.6421 5.35786 18 9.5 18C13.6421 18 17 14.6421 17 10.5C17 10.0858 16.6642 9.75 16.25 9.75C15.8358 9.75 15.5 10.0858 15.5 10.5C15.5 13.8137 12.8137 16.5 9.5 16.5C6.18629 16.5 3.5 13.8137 3.5 10.5C3.5 7.20664 6.15341 4.53301 9.43904 4.5003L8.71967 5.21967C8.42678 5.51256 8.42678 5.98744 8.71967 6.28033C9.01256 6.57322 9.48744 6.57322 9.78033 6.28033L12.0303 4.03033C12.3232 3.73744 12.3232 3.26256 12.0303 2.96967L9.78033 0.71967ZM13.5201 6.95963C13.8185 7.24688 13.8276 7.72166 13.5404 8.0201L9.69039 12.0201C9.549 12.167 9.35391 12.25 9.15002 12.25C8.94613 12.25 8.75104 12.167 8.60965 12.0201L6.95963 10.3057C6.67239 10.0073 6.68147 9.53249 6.97991 9.24525C7.27835 8.95801 7.75314 8.96709 8.04038 9.26553L9.15003 10.4185L12.4596 6.9799C12.7469 6.68146 13.2217 6.67239 13.5201 6.95963Z" fill="#212121"/>
</svg>

<svg xmlns="http://www.w3.org/2000/svg" width="20" height="20"><path d="M9.78.72a.75.75 0 0 0-1.06 1.06L9.94 3H9.5a7.5 7.5 0 1 0 7.5 7.5.75.75 0 0 0-1.5 0 6 6 0 1 1-6.061-6l-.72.72A.75.75 0 0 0 9.78 6.28l2.25-2.25a.75.75 0 0 0 0-1.06L9.78.72Zm3.74 6.24a.75.75 0 0 1 .02 1.06l-3.85 4a.75.75 0 0 1-1.08 0l-1.65-1.714a.75.75 0 1 1 1.08-1.04l1.11 1.152 3.31-3.438a.75.75 0 0 1 1.06-.02Z"/></svg>
